X: 4275
T: SAILOR'S HORNPIPE
R: Hornpipe.
%R: hornpipe, reel
B: James Kerr "Merry Melodies" v.4 p.29 #275
Z: 2016 John Chambers <jc:trillian.mit.edu>
M: C|
L: 1/8
K: A
(cd) |\
   ecea fagf | ecea fagf |\
[1 efec decB | cdcA B2 :|\
[2 gbge faf^d | e2g2e2 |:\
(cB) |\
ABcd efga |
f2B2 B2(B^A) |\
Bc^de fgab | g2e2 e2(cd) |\
ecag fedc | dBbagfed |\
cecA BdBG | A2c2A2 :|

%%sep 1 1 500
%%sep 1 1 500

